docs/img/ico-lc.svg

<svg width="18" height="20" viewBox="0 0 18 20" fill="none" xmlns="http://www.w3.org/2000/svg">
<path d="M18 19.8969C16.8899 19.8969 15.8198 19.8936 14.7497 19.8969C10.9508 19.9093 7.15142 19.9293 3.35255 19.9325C2.63374 19.9325 1.91494 19.8661 1.19613 19.8326C0.989134 19.8228 0.855642 19.7574 0.859965 19.5148C0.893474 17.5945 1.15505 15.7273 2.26515 14.0945C2.94883 13.0898 3.90273 12.3899 5.00743 11.8927C5.15448 11.8244 5.31502 11.7901 5.47715 11.7922C5.63928 11.7944 5.79885 11.833 5.94404 11.9051C6.91686 12.3591 7.9086 12.7888 8.8625 13.2893C9.29865 13.5184 9.62617 13.519 10.0612 13.2893C10.98 12.8028 11.9388 12.3937 12.8749 11.9381C13.344 11.7111 13.7747 11.7971 14.2103 12.0235C15.9814 12.9423 17.1418 14.3399 17.639 16.2964C17.9351 17.4708 17.9492 18.6592 18 19.8969Z" fill="#FF6600"/>
<path d="M9.43001 10.367C12.2928 10.367 14.6135 8.0463 14.6135 5.18352C14.6135 2.32074 12.2928 0 9.43001 0C6.56723 0 4.24649 2.32074 4.24649 5.18352C4.24649 8.0463 6.56723 10.367 9.43001 10.367Z" fill="#FF6600"/>
</svg>

<svg width="18" height="20" fill="none" xmlns="http://www.w3.org/2000/svg"><path d="M18 19.897c-1.11 0-2.18-.003-3.25 0-3.8.012-7.599.032-11.397.036-.72 0-1.438-.067-2.157-.1-.207-.01-.34-.076-.336-.318.033-1.92.295-3.788 1.405-5.42.684-1.005 1.638-1.705 2.742-2.202a1.082 1.082 0 0 1 .937.012c.973.454 1.965.884 2.919 1.384.436.23.763.23 1.198 0 .919-.486 1.878-.895 2.814-1.35.469-.228.9-.142 1.335.085 1.771.918 2.932 2.316 3.429 4.272.296 1.175.31 2.363.361 3.6zm-8.57-9.53A5.183 5.183 0 1 0 9.43 0a5.183 5.183 0 0 0 0 10.367z" fill="#F60"/></svg>
